assets/img/community-spiral-arrow.svg

<svg width="143" height="191" viewBox="0 0 143 191" fill="none" xmlns="http://www.w3.org/2000/svg">
<path d="M75.8004 175.165L74.8354 176.681L76.6328 176.702C77.1029 176.707 77.4144 176.749 77.6811 176.785C77.6963 176.787 77.712 176.789 77.7282 176.792C77.9678 176.825 78.311 176.872 78.6793 176.803L78.787 176.783L78.8879 176.74C105.016 165.594 124.225 147.325 134.19 120.569C136.758 113.726 137.477 106.378 136.578 98.9678C134.773 82.9349 123.15 70.4668 107.266 67.3604C99.1086 65.7182 90.891 65.5346 82.9548 69.1152L82.5289 69.3074L82.4031 69.7573C82.1548 70.6448 81.9156 71.5265 81.6787 72.4C80.9159 75.2126 80.1763 77.9396 79.2284 80.4972C77.2251 85.8209 73.764 89.8438 68.3273 91.8572L68.3165 91.8611L68.3058 91.8654C64.248 93.475 60.9051 92.8043 59.4955 90.9668C57.4444 88.293 57.8255 85.1563 59.7179 82.6793L59.7191 82.6777C62.5926 78.9002 65.957 75.435 69.4367 72.2271C71.2125 70.6139 73.3601 69.3075 75.5391 67.9819C76.0517 67.6701 76.5661 67.3572 77.0778 67.039L77.5584 66.7401L77.5495 66.1741C77.427 58.3579 73.9149 52.2502 68.0876 48.6303C62.2906 45.0293 54.3178 43.9575 45.3376 45.9164L44.8199 46.0293L44.6226 46.5211C44.4873 46.8584 44.3522 47.1977 44.2166 47.538C43.5384 49.2406 42.8503 50.9681 42.0845 52.5968C38.5328 59.6911 33.1215 64.6367 25.2577 66.2277C22.206 66.8387 19.4235 66.7006 17.5357 64.1144C16.2259 62.2841 16.4586 59.1578 18.9126 55.9734C22.9448 50.9045 28.4232 47.6491 34.3443 44.9092C36.4672 44.0057 38.5624 43.1143 40.6359 42.3524L41.277 42.1169L41.2907 41.4339C41.5284 29.616 36.9492 18.8345 29.5194 11.8088C22.4233 5.09865 12.727 1.82471 2.24464 4.38241C2.28831 4.13364 2.32976 3.90631 2.37472 3.69366C2.50938 3.05658 2.64038 2.75286 2.7621 2.60825C2.98703 2.3778 3.37222 2.16292 3.91115 1.99409C4.44135 1.828 5.03887 1.73171 5.59396 1.68502C16.8068 1.12728 26.6071 3.78299 33.7572 12.6614L33.7572 12.6614L33.7622 12.6676C39.248 19.3696 42.5238 27.0771 44.2514 35.656C44.2518 35.6576 44.2521 35.6592 44.2524 35.6608L44.2545 35.672C44.4805 36.852 44.7161 38.0823 45.0789 39.3363C45.1146 39.5628 45.2137 39.7314 45.2742 39.8207C45.3622 39.9505 45.468 40.0568 45.5328 40.1202C45.5927 40.1788 45.6649 40.2457 45.7342 40.3098C45.7477 40.3223 45.7612 40.3347 45.7744 40.347C45.8608 40.4271 45.9568 40.5168 46.065 40.6227L46.3462 40.898L46.7396 40.9078C47.148 40.9179 47.5784 40.9479 48.055 40.9812C48.2462 40.9945 48.4448 41.0084 48.6524 41.0217C49.3531 41.0665 50.1208 41.1019 50.9092 41.0681C59.7656 40.8959 66.1277 42.2803 70.9904 45.7095C75.8568 49.1413 79.378 54.7313 82.3059 63.3167L82.5853 64.1359L83.4361 63.9768C83.9386 63.8829 84.4823 63.7899 85.0485 63.6929C86.2553 63.4864 87.5648 63.2623 88.7974 62.9746C99.1372 61.0043 109.03 62.0933 118.575 66.7542L118.577 66.7552C134.09 74.2857 142.703 89.5207 141.477 107.232L141.477 107.233C140.821 116.908 137.9 125.896 133.192 134.406C121.671 155.023 105.355 170.223 82.8509 178.565L82.8202 178.577L82.7903 178.59C82.2605 178.827 81.6983 179.032 81.0958 179.252L81.0791 179.258C80.4937 179.471 79.8694 179.698 79.2689 179.966L79.1651 180.013L79.0744 180.081C78.8763 180.231 78.7256 180.422 78.5979 180.595C78.462 180.778 78.2831 181.039 78.0391 181.395L77.3202 182.443L78.5074 182.895C82.6095 184.459 86.6534 184.742 90.5156 185.013C90.8652 185.038 91.2133 185.062 91.5598 185.087C94.1316 185.352 96.7909 185.523 99.5139 185.697C100.699 185.773 101.896 185.85 103.104 185.936C102.744 186.771 102.287 187.343 101.783 187.757C101.065 188.346 100.165 188.683 99.0866 188.906C98.4388 189.007 97.8065 189.119 97.1871 189.228C95.0892 189.597 93.1395 189.941 91.2334 189.779C84.1394 189.082 76.9572 188.239 69.8548 186.882C67.1721 186.326 65.9161 185.345 65.5086 184.347C65.1078 183.365 65.3424 181.898 66.8214 179.89C73.4905 171.004 80.291 162.136 87.0951 153.262C87.885 152.258 88.7757 151.423 89.8907 150.379C90.0005 150.276 90.1124 150.171 90.2266 150.064C90.612 150.954 90.6366 151.658 90.5208 152.251C90.3485 153.132 89.8504 153.902 89.2397 154.846L89.2381 154.849C84.6077 161.389 80.3729 167.98 75.8004 175.165ZM20.3281 60.8145L19.4155 62.3219L21.1776 62.3324C25.9566 62.361 30.0832 61.0864 33.2254 58.6971C36.3739 56.3031 38.4719 52.8363 39.2569 48.605L39.6127 46.6875L37.8479 47.5178C37.5826 47.6426 37.3172 47.7671 37.0519 47.8915C30.808 50.8201 24.6228 53.7212 20.3281 60.8145ZM61.7761 87.1695L61.2878 88.6304L62.821 88.4819C66.985 88.0785 70.3232 86.635 72.6559 84.1366C74.9877 81.6393 76.2097 78.2006 76.3606 74.009L76.4285 72.1202L74.8288 73.1266C69.2895 76.6109 64.1434 80.0874 61.7761 87.1695Z" fill="#2F5B0C" stroke="#FFBF2D" stroke-width="2"/>
</svg>

<svg xmlns="http://www.w3.org/2000/svg" width="143" height="191" fill="none" xmlns:v="https://vecta.io/nano"><path d="M75.8 175.165l-.965 1.516 1.797.021a7.7 7.7 0 0 1 1.048.083l.047.007c.24.033.583.08.951.011l.108-.02.101-.043c26.128-11.146 45.337-29.415 55.302-56.171 2.568-6.843 3.287-14.191 2.388-21.601-1.805-16.033-13.428-28.501-29.312-31.607-8.157-1.642-16.375-1.826-24.311 1.755l-.426.192-.126.45-.724 2.643c-.763 2.813-1.502 5.54-2.45 8.097-2.003 5.324-5.464 9.347-10.901 11.36l-.011.004-.011.004c-4.058 1.61-7.401.939-8.81-.899-2.051-2.674-1.67-5.811.222-8.288l.001-.002c2.874-3.778 6.238-7.243 9.718-10.451 1.776-1.613 3.923-2.92 6.102-4.245l1.539-.943.481-.299-.009-.566c-.122-7.816-3.635-13.924-9.462-17.544-5.797-3.601-13.77-4.673-22.75-2.714l-.518.113-.197.492-.406 1.017c-.678 1.703-1.366 3.43-2.132 5.059-3.552 7.094-8.963 12.04-16.827 13.631-3.052.611-5.834.473-7.722-2.113-1.31-1.83-1.077-4.957 1.377-8.141 4.032-5.069 9.511-8.324 15.432-11.064 2.123-.904 4.218-1.795 6.292-2.557l.641-.236.014-.683c.238-11.818-4.342-22.599-11.771-29.625-7.096-6.71-16.792-9.984-27.275-7.426l.13-.689c.135-.637.266-.941.387-1.085.225-.23.61-.445 1.149-.614.53-.166 1.128-.262 1.683-.309 11.213-.558 21.013 2.098 28.163 10.976h0l.005.006c5.486 6.702 8.762 14.41 10.489 22.988l.003.016c.226 1.18.462 2.41.824 3.664.036.227.135.395.195.484.088.13.194.236.259.299a10.45 10.45 0 0 0 .201.19l.04.037.291.276.281.275.393.01c.408.01.839.04 1.315.073l.597.041c.701.045 1.468.08 2.257.046 8.856-.172 15.219 1.212 20.081 4.641s8.388 9.022 11.316 17.607l.279.819.851-.159 1.612-.284c1.207-.206 2.516-.431 3.749-.718 10.34-1.97 20.233-.881 29.778 3.78l.002.001c15.513 7.531 24.126 22.766 22.9 40.477v.001c-.656 9.675-3.577 18.663-8.285 27.173-11.521 20.617-27.837 35.817-50.341 44.159l-.031.012-.03.013c-.53.237-1.092.442-1.695.662l-.017.006c-.585.213-1.21.44-1.81.708l-.104.047-.091.068c-.198.15-.349.341-.477.514-.136.183-.315.444-.559.8l-.719 1.048 1.187.452c4.102 1.564 8.146 1.847 12.008 2.118l1.044.074c2.572.265 5.231.436 7.954.61l3.59.239c-.36.835-.817 1.407-1.321 1.821-.718.589-1.618.926-2.696 1.149l-1.9.322c-2.098.369-4.048.713-5.954.551-7.094-.697-14.276-1.54-21.379-2.897-2.683-.556-3.939-1.537-4.346-2.535-.401-.982-.166-2.449 1.313-4.457l20.274-26.628c.79-1.004 1.681-1.839 2.796-2.883l.336-.315c.385.89.41 1.594.294 2.187-.172.881-.67 1.651-1.281 2.595l-.002.003c-4.63 6.54-8.865 13.131-13.438 20.316zM20.328 60.815l-.913 1.507 1.762.011c4.779.029 8.906-1.246 12.048-3.635 3.148-2.394 5.246-5.861 6.032-10.092l.356-1.917-1.765.83-.796.374c-6.244 2.929-12.429 5.83-16.724 12.923zM61.776 87.17l-.488 1.461 1.533-.148c4.164-.403 7.502-1.847 9.835-4.345s3.554-5.936 3.705-10.128l.068-1.889-1.6 1.006c-5.539 3.484-10.685 6.961-13.053 14.043z" fill="#2f5b0c" stroke="#ffbf2d" stroke-width="2"/></svg>
